X: 36027
T: Scandalmonger's, The
R: waltz
M: 3/4
K: Dmajor
D2 DD FA|BA FA Bd|D2 DD FA|BA FA Bd|
E2 EF GF|E2 D2 B,2|E2 EF GF|ED CB, A,2|
D2 DD FA|BA FA Bd|D2 DD FA|BA FA Bd|
f2 fe dB|A2 F2 D2|A,C EG FE|D6:|
|:a2 ab af|d2 A2 F2|A2 AB AF|AB d2 f2|
a2 ab af|d2 A2 F2|A2 AB AF|E4 D2|
a2 ab af|d2 A2 F2|A2 AB AF|AB d2 f2|
a2 a2 ef|g2 g2 FE|dB A2 F2|D6:|

